static/assets/head_icons_png/man/bizi/1027308.svg

<svg xmlns="http://www.w3.org/2000/svg" width="7" height="9"><g transform="translate(3.35 4.1)"><radialGradient id="a" gradientUnits="userSpaceOnUse" gradientTransform="matrix(.00798 0 -.0002 .00879 -3.5 -3.85)" spreadMethod="pad" cx="0" cy="0" r="819.2" fx="0" fy="0"><stop offset="0" stop-color="#f39b61"/><stop offset=".741" stop-color="#f7ba99" stop-opacity=".431"/><stop offset="1" stop-color="#f7ba99" stop-opacity=".18"/></radialGradient><path d="M2 1v.1l.05.15.05.05v.05l-.05-.05-.1-.05V1.1l-.1.15-.05-.15q-.3.15-.55.65l.05.2V2l-.05-.2-.15.35-.05-1.1L.8 0Q.7-.5.75-1.8.7-3.1 1.2-3.45l1-.65-.5 1.6q-.25.8-.15 1.2L1.9.35l.05.4-.1-.1.1.25L2 1" fill="url(#a)"/><radialGradient id="b" gradientUnits="userSpaceOnUse" gradientTransform="matrix(.00684 0 -.0001 .0046 -.2 4.3)" spreadMethod="pad" cx="0" cy="0" r="819.2" fx="0" fy="0"><stop offset="0" stop-color="#be5e1f" stop-opacity=".831"/><stop offset=".643" stop-color="#f7bc99"/><stop offset="1" stop-color="#f7ba99" stop-opacity=".482"/></radialGradient><path d="M1.8 3.15l.7-.1q.55-.2.6-.8Q3.2 1.6 2 1L1.95.9l.35.15.55.3q.35.25.5.8.15.55-.25.95l-.7.4-.6.05-.75.3-.8.3h-.5l-.95-.45-1.2-.25q-1.1-.25-.9-1.1.15-.9 1.4-1.35l-.15.45.05-.2h-.05q-.9.35-.9 1 .05.65.75.9l.75.2.4.15.45.35.75.2q.45-.05.95-.4l.7-.5" fill="url(#b)"/><radialGradient id="c" gradientUnits="userSpaceOnUse" gradientTransform="matrix(.0071 0 -.00018 .00781 -.35 7.6)" spreadMethod="pad" cx="0" cy="0" r="819.2" fx="0" fy="0"><stop offset=".502" stop-color="#f39b61"/><stop offset=".694" stop-color="#f7b999" stop-opacity=".871"/><stop offset="1" stop-color="#f7ba99" stop-opacity=".231"/></radialGradient><path d="M1.1 3.65q-.5.35-.95.4l-.75-.2-.45-.35-.4-.15-.05-.7-.25-.9-.2-.3h.1l.3.3.1.15.1.2.2.4.1.2v.05q.4.6 1 .6.8 0 1.25-1.05l.05-.15L1.3 2v-.05l.1-.15.05.35-.05-.4.4-.65.05.15.1-.15v.15l.1.05.05.05L2 1.3h-.05l.05.05q-.45.45-.45 1.4-.05.25.25.4l-.7.5" fill="url(#c)"/><radialGradient id="d" gradientUnits="userSpaceOnUse" gradientTransform="matrix(.00418 -.0011 .00137 .00706 .55 -2.8)" spreadMethod="pad" cx="0" cy="0" r="819.2" fx="0" fy="0"><stop offset="0" stop-color="#f39b61"/><stop offset=".741" stop-color="#f7ba99" stop-opacity=".573"/><stop offset="1" stop-color="#f7b999" stop-opacity=".102"/></radialGradient><path d="M-1.55 1.75l-.3-.3h-.2L-1.9 1q.25-.95.15-3.05l-.25-.7q-.3-.75-.95-.9l1.05-.1q.65.45.8 1.2.15.7-.05 2.75l-.3 1.45V1.6v.3l-.1-.15" fill="url(#d)"/><radialGradient id="e" gradientUnits="userSpaceOnUse" gradientTransform="matrix(.00064 .00006 -.0001 .00269 .05 -.6)" spreadMethod="pad" cx="0" cy="0" r="819.2" fx="0" fy="0"><stop offset=".314" stop-color="#fff" stop-opacity=".431"/><stop offset="1" stop-color="#fff" stop-opacity="0"/></radialGradient><path d="M.4-.6L.2.95l-.05.3v.05l-.2.25-.2-.3V-.7l.05-1.5.3-.6.25.65L.4-.6" fill="url(#e)"/><radialGradient id="f" gradientUnits="userSpaceOnUse" gradientTransform="matrix(.00049 .00003 -.00005 .00053 -.1 2.3)" spreadMethod="pad" cx="0" cy="0" r="819.2" fx="0" fy="0"><stop offset=".314" stop-color="#fff" stop-opacity=".431"/><stop offset="1" stop-color="#fff" stop-opacity="0"/></radialGradient><path d="M.2 2.3l-.15.3-.3.1-.25-.15-.1-.3.15-.3.3-.1Q0 1.85.1 2l.1.3" fill="url(#f)"/></g></svg>

<?xml version="1.0" encoding="utf-8"?>
<svg version="1.1" id="Layer_1"
xmlns="http://www.w3.org/2000/svg"
xmlns:xlink="http://www.w3.org/1999/xlink"
xmlns:author="http://www.sothink.com"
width="7px" height="9px"
xml:space="preserve">
<g id="473" transform="matrix(1, 0, 0, 1, 3.35, 4.1)">
<radialGradient
id="RadialGradID_4092" gradientUnits="userSpaceOnUse" gradientTransform="matrix(0.00798035, 0, -0.000198364, 0.00878906, -3.5, -3.85)" spreadMethod ="pad" cx="0" cy="0" r="819.2" fx="0" fy="0" >
<stop  offset="0"  style="stop-color:#F39B61;stop-opacity:1" />
<stop  offset="0.741176"  style="stop-color:#F7BA99;stop-opacity:0.431373" />
<stop  offset="1"  style="stop-color:#F7BA99;stop-opacity:0.180392" />
</radialGradient>
<path style="fill:url(#RadialGradID_4092) " d="M2,1L2 1.05L2 1.1L2.05 1.25L2.1 1.3L2.1 1.35L2.05 1.3L1.95 1.25L1.95 1.1L1.85 1.25L1.8 1.1Q1.5 1.25 1.25 1.75L1.3 1.95L1.3 2L1.25 1.8L1.1 2.15L1.05 1.05L0.8 0Q0.7 -0.5 0.75 -1.8Q0.7 -3.1 1.2 -3.45L2.2 -4.1L1.7 -2.5Q1.45 -1.7 1.55 -1.3L1.9 0.35L1.95 0.75L1.85 0.65L1.95 0.9L2 1" />
<radialGradient
id="RadialGradID_4093" gradientUnits="userSpaceOnUse" gradientTransform="matrix(0.00683594, 0, -0.000106812, 0.0045929, -0.2, 4.3)" spreadMethod ="pad" cx="0" cy="0" r="819.2" fx="0" fy="0" >
<stop  offset="0"  style="stop-color:#BE5E1F;stop-opacity:0.831373" />
<stop  offset="0.643137"  style="stop-color:#F7BC99;stop-opacity:1" />
<stop  offset="1"  style="stop-color:#F7BA99;stop-opacity:0.482353" />
</radialGradient>
<path style="fill:url(#RadialGradID_4093) " d="M1.8,3.15L2.5 3.05Q3.05 2.85 3.1 2.25Q3.2 1.6 2 1L1.95 0.9L2.3 1.05L2.85 1.35Q3.2 1.6 3.35 2.15Q3.5 2.7 3.1 3.1L2.4 3.5L1.8 3.55L1.05 3.85L0.25 4.15L-0.25 4.15L-1.2 3.7L-2.4 3.45Q-3.5 3.2 -3.3 2.35Q-3.15 1.45 -1.9 1L-2.05 1.45L-2 1.25L-2.05 1.25Q-2.95 1.6 -2.95 2.25Q-2.9 2.9 -2.2 3.15L-1.45 3.35L-1.05 3.5L-0.6 3.85L0.15 4.05Q0.6 4 1.1 3.65L1.8 3.15" />
<radialGradient
id="RadialGradID_4094" gradientUnits="userSpaceOnUse" gradientTransform="matrix(0.00709534, 0, -0.000183105, 0.0078125, -0.35, 7.6)" spreadMethod ="pad" cx="0" cy="0" r="819.2" fx="0" fy="0" >
<stop  offset="0.501961"  style="stop-color:#F39B61;stop-opacity:1" />
<stop  offset="0.694118"  style="stop-color:#F7B999;stop-opacity:0.870588" />
<stop  offset="1"  style="stop-color:#F7BA99;stop-opacity:0.231373" />
</radialGradient>
<path style="fill:url(#RadialGradID_4094) " d="M1.1,3.65Q0.6 4 0.15 4.05L-0.6 3.85L-1.05 3.5L-1.45 3.35L-1.5 2.65L-1.75 1.75L-1.95 1.45L-1.85 1.45L-1.55 1.75L-1.45 1.9L-1.35 2.1L-1.15 2.5L-1.05 2.7L-1.05 2.75Q-0.65 3.35 -0.05 3.35Q0.75 3.35 1.2 2.3L1.25 2.15L1.3 2L1.3 1.95L1.4 1.8L1.45 2.15L1.4 1.75L1.8 1.1L1.85 1.25L1.95 1.1L1.95 1.25L2.05 1.3L2.1 1.35L2 1.3L1.95 1.3L2 1.35Q1.55 1.8 1.55 2.75Q1.5 3 1.8 3.15L1.1 3.65" />
<radialGradient
id="RadialGradID_4095" gradientUnits="userSpaceOnUse" gradientTransform="matrix(0.00418091, -0.00109863, 0.00137329, 0.00706482, 0.55, -2.8)" spreadMethod ="pad" cx="0" cy="0" r="819.2" fx="0" fy="0" >
<stop  offset="0"  style="stop-color:#F39B61;stop-opacity:1" />
<stop  offset="0.741176"  style="stop-color:#F7BA99;stop-opacity:0.572549" />
<stop  offset="1"  style="stop-color:#F7B999;stop-opacity:0.101961" />
</radialGradient>
<path style="fill:url(#RadialGradID_4095) " d="M-1.55,1.75L-1.85 1.45L-1.95 1.45L-2.05 1.45L-1.9 1Q-1.65 0.05 -1.75 -2.05L-2 -2.75Q-2.3 -3.5 -2.95 -3.65L-1.9 -3.75Q-1.25 -3.3 -1.1 -2.55Q-0.95 -1.85 -1.15 0.2L-1.45 1.65L-1.45 1.6L-1.45 1.9L-1.55 1.75" />
<radialGradient
id="RadialGradID_4096" gradientUnits="userSpaceOnUse" gradientTransform="matrix(0.000640869, 6.10352e-005, -9.15527e-005, 0.00268555, 0.05, -0.6)" spreadMethod ="pad" cx="0" cy="0" r="819.2" fx="0" fy="0" >
<stop  offset="0.313725"  style="stop-color:#FFFFFF;stop-opacity:0.431373" />
<stop  offset="1"  style="stop-color:#FFFFFF;stop-opacity:0" />
</radialGradient>
<path style="fill:url(#RadialGradID_4096) " d="M0.4,-0.6L0.2 0.95L0.15 1.25L0.15 1.3L-0.05 1.55L-0.25 1.25L-0.25 1.2L-0.25 0.6L-0.25 -0.7L-0.2 -2.2L0.1 -2.8L0.35 -2.15L0.4 -0.6" />
<radialGradient
id="RadialGradID_4097" gradientUnits="userSpaceOnUse" gradientTransform="matrix(0.000488281, 3.05176e-005, -4.57764e-005, 0.000534058, -0.1, 2.3)" spreadMethod ="pad" cx="0" cy="0" r="819.2" fx="0" fy="0" >
<stop  offset="0.313725"  style="stop-color:#FFFFFF;stop-opacity:0.431373" />
<stop  offset="1"  style="stop-color:#FFFFFF;stop-opacity:0" />
</radialGradient>
<path style="fill:url(#RadialGradID_4097) " d="M0.2,2.3L0.05 2.6L-0.25 2.7L-0.5 2.55L-0.6 2.25L-0.45 1.95L-0.15 1.85Q0 1.85 0.1 2L0.2 2.3" />
</g>
</svg>
